svg/fluentui-system-icons/ic_fluent_table_stack_above_20_regular.svg

<svg width="20" height="20" viewBox="0 0 20 20" fill="none" xmlns="http://www.w3.org/2000/svg">
<path d="M3 3.5C3 3.22386 3.22386 3 3.5 3H16.5C16.7761 3 17 3.22386 17 3.5C17 3.77614 16.7761 4 16.5 4H3.5C3.22386 4 3 3.77614 3 3.5ZM3 8.5C3 8.22386 3.22386 8 3.5 8H16.5C16.7761 8 17 8.22386 17 8.5V15C17 16.1046 16.1046 17 15 17H5C3.89543 17 3 16.1046 3 15V8.5ZM4 13V15C4 15.5523 4.44772 16 5 16H7V13H4ZM12 16V13H8V16H12ZM13 16H15C15.5523 16 16 15.5523 16 15V13H13V16ZM13 12H16V9H13V12ZM12 9H8V12H12V9ZM4 9V12H7V9H4Z" fill="#212121"/>
</svg>

<svg xmlns="http://www.w3.org/2000/svg" width="20" height="20"><path d="M3 3.5a.5.5 0 0 1 .5-.5h13a.5.5 0 0 1 0 1h-13a.5.5 0 0 1-.5-.5Zm0 5a.5.5 0 0 1 .5-.5h13a.5.5 0 0 1 .5.5V15a2 2 0 0 1-2 2H5a2 2 0 0 1-2-2V8.5ZM4 13v2a1 1 0 0 0 1 1h2v-3H4Zm8 3v-3H8v3h4Zm1 0h2a1 1 0 0 0 1-1v-2h-3v3Zm0-4h3V9h-3v3Zm-1-3H8v3h4V9ZM4 9v3h3V9H4Z"/></svg>
